!!!COM: Music21
!!!OTL: hornpipe_Fiddler-Around-The-Faerie-Tree
!!!OMV: hornpipe_Fiddler-Around-The-Faerie-Tree
**kern
*clefG2
*k[f#]
*G:
*M4/4
=1
12dL
12e
12f#J
=||
4g
8bL
8gJ
8aL
8bJ
8ccL
8aJ
=
8ddL
8eeJ
8ff#L
8ddJ
8ddL
8ccJ
8bL
8aJ
=
4b
8bL
8gJ
8aL
8bJ
8aL
8gJ
=
8f#L
8gJ
8aL
8bJ
8ccL
8aJ
8f#L
8aJ
!!linebreak:original
=
8gL
8aJ
12bL
12a
12gJ
8aL
8bJ
12ccL
12b
12aJ
=
8ddL
8eeJ
8ff#L
8ddJ
8ddL
8ccJ
8bL
8aJ
=
12bL
12cc
12ddJ
12ggL
12dd
12bJ
8ccL
8aJ
8gL
8f#J
=
4d
4g
4g
12dL
12e
12f#J
=||
4g
8bL
8gJ
8aL
8bJ
8ccL
8aJ
!!linebreak:original
=
8ddL
8eeJ
8ff#L
8ddJ
8ddL
8ccJ
8bL
8aJ
=
4b
8bL
8gJ
8aL
8bJ
8aL
8gJ
=
8f#L
8gJ
8aL
8bJ
8ccL
8aJ
8f#L
8aJ
=
8gL
8aJ
12bL
12a
12gJ
8aL
8bJ
12ccL
12b
12aJ
=
8ddL
8eeJ
8ff#L
8ddJ
8ddL
8ccJ
8bL
8aJ
!!linebreak:original
=
12bL
12cc
12ddJ
12ggL
12dd
12bJ
8ccL
8aJ
8gL
8f#J
=
4d
4g
8gL
8bJ
8eeL
8ff#J
=||
4gg
8eeL
8ggJ
4ff#
8eeL
8ddJ
=
4gg
8eeL
8ggJ
8eeL
8ff#J
12ggL
12ff#
12eeJ
=
8ddL
8eeJ
8ff#L
8ggJ
8aaL
8bbJ
8aaL
8ggJ
!!linebreak:original
=
8ff#L
8ff#J
12ggL
12ff#
12eeJ
8ddL
8eeJ
8ddL
8ccJ
=
4b
8gL
8bJ
8aL
8f#J
4d
=
8bL
8ccJ
8bL
8gJ
8aL
8bJ
8ccL
8aJ
=
8ddL
8eeJ
8ff#L
8ddJ
8ggL
8ddJ
12bL
12cc
12ddJ
=
8eeL
8ccJ
8aL
8f#J
8gL
8f#J
8eL
8dJ
!!linebreak:original
=
8gL
8aJ
12bL
12a
12gJ
8aL
8bJ
12ccL
12b
12aJ
=
8ddL
8eeJ
8ff#L
8ddJ
8ddL
8ccJ
8bL
8aJ
=
12bL
12cc
12ddJ
12ggL
12dd
12bJ
8ccL
8aJ
8gL
8f#J
=
4d
4g
8gL
8bJ
8eeL
8ff#J
=||
4gg
8eeL
8ggJ
4ff#
8eeL
8ddJ
!!linebreak:original
=
4gg
8eeL
8ggJ
8eeL
8ff#J
12ggL
12ff#
12eeJ
=
8ddL
8eeJ
8ff#L
8ggJ
8aaL
8bbJ
8aaL
8ggJ
=
8ff#L
8ff#J
12ggL
12ff#
12eeJ
8ddL
8eeJ
8ddL
8ccJ
=
4b
8gL
8bJ
8aL
8f#J
4d
=
8bL
8ccJ
8bL
8gJ
8aL
8bJ
8ccL
8aJ
!!linebreak:original
=
8ddL
8eeJ
8ff#L
8ddJ
8ggL
8ddJ
12bL
12cc
12ddJ
=
8eeL
8ccJ
8aL
8f#J
8gL
8f#J
8eL
8dJ
=
8gL
8aJ
12bL
12a
12gJ
8aL
8bJ
12ccL
12b
12aJ
=
8ddL
8eeJ
8ff#L
8ddJ
8ddL
8ccJ
8bL
8aJ
=
12bL
12cc
12ddJ
12ggL
12dd
12bJ
8ccL
8aJ
8gL
8f#J
!!linebreak:original
=
4d
4g
4g
4ryy
=||
*-
